!!!COM:	Du Fay, Guillaume
!!!CDT:	~1397/08/05/-1474/11/27
!!!OTL:	Adyeu quitte le demeurant
!!!AGN:	Song; Chanson
!!!SCT:	Duf3018
!!!SCA:	Duf3018
!!!voices:	3
**kern	**kern	**kern	**text
*staff3	*staff2	*staff1	*staff1
*Ivox	*Ivox	*Ivox	*
*I"Tenor	*I"Contratenor	*I"Cantus	*
*I'T	*I'Ct	*I'Cn	*
*clefGv2	*clefGv2	*clefG2	*
*k[]	*k[]	*k[]	*
*M3/1	*M3/1	*M3/1	*
*met(O)	*met(O)	*met(O)	*
=1-	=1-	=1-	=1-
!	!	!LO:TX:Z=11:t=Rondeau	!
0E	1B	1.e	A-
.	1.c	.	.
.	.	2f/	.
1E	.	1g	-dyeu,
.	2B\	.	.
=2	=2	=2	=2
1D	0d	1a	quit-
0G	.	1.b	.
.	1d	.	.
.	.	2a/	.
=3	=3	=3	=3
0A	2c\	0cc	-te
.	2d\	.	.
.	1e	.	.
1G	1E	1b	le
=4	=4	=4	=4
1.A	2r	1cc	de-
.	0e	.	.
.	.	1.a	-meu-
1c	.	.	.
2B\	2d\	2g/	.
=5	=5	=5	=5
1A	2e\	1cc	-rant
.	2f\	.	.
0G	1.g	0b	.
.	2f\	.	.
=6	=6	=6	=6
1G	1d	0.r	.
1A	1c	.	.
1B	1d	.	.
=7	=7	=7	=7
1.c	1.e	1g	De
!LO:TX:Z=8:t=MS&colon; B	!	!	!
.	.	1a	.
2A/	2c\	.	.
1G	1d	1b	ma
=8	=8	=8	=8
2.A/	1r	1.cc	vi-
4B\	.	.	.
2c\	2A/	.	.
2d\	2D/	4b/	.
.	.	4a/	.
1B	1E	2.g#i/	.
.	.	4f#i/	.
=9	=9	=9	=9
1A	1F	1a	-e...&
1.d	1D	2.a/	.
.	.	4g/	.
.	2r	2f/	.
2c\	2A/	2e/	.
=10	=10	=10	=10
1A	2.c\	1f	.
.	4d\	.	.
1G	1B	2g/	.
.	.	2.e/	.
1A	2c\	.	.
.	.	4d/	.
.	[2A/	[2c/	.
=11	=11	=11	=11
2F/	2A/]	4c/]	.
.	.	4d/	.
2G/	2.B\	2e/	.
1D	.	2f/	.
.	4A/	.	.
.	2A/	1d	.
1E	2.G/	.	.
.	.	2c#i/	.
.	4F/	.	.
=12	=12	=12	=12
0.DN	1AN	0dN	.
.	1r	.	.
.	[1A	1r	.
=13	=13	=13	=13
0.r	1A]	1a	.
.	2B\	2g/	.
.	2c\	2e/	.
.	1d	[1f	.
=14	=14	=14	=14
1A	1c	2f/]	.
.	.	1e	.
2G/	2B\	.	.
2E/	2G/	2c/	.
1F	1A	2.d/	.
.	.	4c/	.
=15	=15	=15	=15
0E	2B\	1e	.
.	2.c\	.	.
.	.	1g	.
.	4d\	.	.
.	4c\	.	.
.	4B\	.	.
1D	[1d	1a	.
=16	=16	=16	=16
2G/	2d\]	2b\	.
2E/	2e\	4cc\	.
.	.	4b\	.
2F/	2d\	4a/	.
.	.	4g/	.
2G/	2B\	2g/	.
1A	1c	2e/	.
.	.	2f#i/	.
=17	=17	=17	=17
0G	0d	1g	.
.	.	1r	.
1A	1c	1cc	.
=18	=18	=18	=18
1r	2d\	1b	.
.	2e\	.	.
1r	1f	0a	.
1c	1e	.	.
=19	=19	=19	=19
1B	1d	1g	.
0A	1e	2.a/	.
.	.	4g/	.
.	1c	[1e	.
=20	=20	=20	=20
1G	1B	2e/]	.
.	.	2d/	.
2A/	2c\	2f/	.
2G/	4B/	4e/	.
.	4A/	4d/	.
[1E	1G	1c	.
=21	=21	=21	=21
2E/]	2r	2g/	.
2D/	2d\	2.f/	.
2E/	2c\	.	.
.	.	4e/	.
2G/	2B\	1e	.
1F	2.A/	.	.
.	.	2d/	.
.	4G/	.	.
=22	=22	=22	=22
0.El	0.Bl	0.el	.
==	==	==	==
*-	*-	*-	*-
!!!RDF**kern: l=long note in original notation
!!!RDF**kern: i=editorial accidental
!!!RDF**kern: N=signum congruentiae
!!!ENC:	Planchart
!!!END:	2016/04/15/
!!!EED:	Jesse Rodin
!!!EEV:	2016/04/15/
!!!ONB:	Translated from MusicXML and edited on 2016/04/15/ by Craig Sapp
!!muse2ps: C^@{COM}^i2I150v95,95,150Q16c80
